X: 10052
T: the QUAKERS WIFE
Q: "Lively"
%R: jig
B: "Edinburgh Repository of Music" v.1 p.5 #2
F: http://digital.nls.uk/special-collections-of-printed-music/pageturner.cfm?id=87776133
Z: 2015 John Chambers <jc:trillian.mit.edu>
M: 6/8
L: 1/8
K: G
|:\
G>AB D2B | (dcB) (BAG) |\
G>AB D2D | E3 {F}G2 :|\
|: d |\
dcB edc | dcB ABc |
d>cB e>fg | B3 d3 |\
(dc).B (gf).e | dcB {B}A2G |\
GAB D2D | E3 {F}G2 :|
